X:129
M:2/4
L:1/8
Q:1/4=120
K:E
b2 {a/}gf/g/|ag f2|geee|f/e/d/c/ B2|\
{eg}b2 {a/}gf/g/|ag f2|ga ef/d/|e2E2:|
L:1/16
|:GBeB Acec|GBeB Acec|[e2B2G2]b2a2g2|(fefg) f4|\

